X: 2013
T: Bore Madam.
%R: bourr\'ee
B: Henry Playford "Apollo's Banquet", London 1687 (5th Edition)
F: https://archive.org/details/apollosbanquetco01rugg
Z: 2017 John Chambers <jc:trillian.mit.edu>
M: C|
L: 1/8
K: G
% - - - - - - - - - -
d2 |\
d2g2 e2a>g | f2 d4 e2 |\
B2c2 d2c>B | A2 G4 :: d2 |\
B2G2 c3d | e3f g2a2 |
^c2d2 d3^c | d6 d2 |\
g2=fe =f3d | e2dc B3c |\
d2e2 f2d2 | g3a a3g | g2 g4 |]
% - - - - - - - - - -

%%sep 1 1 500
%%sep 1 1 500

